client/assets/img/icon-graph.svg

<svg width="20" height="20" viewBox="0 0 20 20" xmlns="http://www.w3.org/2000/svg"><title>Untitled 2</title><path d="M20 18.25v1.25H0V.75h1.25v17.5H20zM6.25 17h-2.5v-6.25h2.5V17zm5 0h-2.5V4.5h2.5V17zm5 0h-2.5V8.25h2.5V17z" fill="#000" fill-rule="evenodd"/></svg>

<?xml version="1.0" encoding="UTF-8" standalone="no"?>
<svg width="20px" height="20px" viewBox="0 0 20 20" version="1.1" xmlns="http://www.w3.org/2000/svg" xmlns:xlink="http://www.w3.org/1999/xlink" xmlns:sketch="http://www.bohemiancoding.com/sketch/ns">
    <!-- Generator: Sketch 3.4.4 (17249) - http://www.bohemiancoding.com/sketch -->
    <title>Untitled 2</title>
    <desc>Created with Sketch.</desc>
    <defs></defs>
    <g id="Page-1" stroke="none" stroke-width="1" fill="none" fill-rule="evenodd" sketch:type="MSPage">
        <g id="icon-graph" sketch:type="MSLayerGroup" fill="#000000">
            <path d="M20,18.25 L20,19.5 L0,19.5 L0,0.75 L1.25,0.75 L1.25,18.25 L20,18.25 Z M6.25,17 L3.75,17 L3.75,10.75 L6.25,10.75 L6.25,17 Z M11.25,17 L8.75,17 L8.75,4.5 L11.25,4.5 L11.25,17 Z M16.25,17 L13.75,17 L13.75,8.25 L16.25,8.25 L16.25,17 Z" id="" sketch:type="MSShapeGroup"></path>
        </g>
    </g>
</svg>
